X:1
T:Title
%%score { ( 1 3 4 ) | ( 2 5 6 ) }
L:1/8
Q:1/4=100
M:4/4
K:Ab
V:1 treble nm="Grand Piano"
V:3 treble 
V:4 treble 
V:2 bass 
V:5 bass 
V:6 bass 
V:1
 [CE]3 [CE] [DF]2 [CE]2 | [CEA]3 [DEB] [Ec]2 [EA]2 | [A,DF]3 [DB] [FA][EG] [FA]>[EG] | [CE]6 z2 | %4
w: W.~B.~Blake * * *||||
 [CE]3 [CE] [DF]2 [CE]2 |[M:9/8] [CEA]3 [Ac] [_Ge]2 [Fd]3 |[M:4/4] c3 A cBAG | [CEA]6 z2 | %8
w: ||||
 e3 e edcd | e4 c2 z2 | [Gd]3 [Bd] c>c B>A | [GB]6 z2 | c3 c [DB]>[CA] [EB]>[EA] | %13
w: |||||
 [DF]4 [FA]2 [=EB]2 |[M:19/16] c/-c/-c-<cAc/ z/ z/ z/ z G/-G-<G |[M:4/4] [CEA]6 z2 |] %16
w: |||
V:2
 [A,,A,]3 [A,,A,] [A,,A,]2 [A,,A,]2 | A,,3 A,, A,,2 C,2 | D,3 [D,F,] [D,A,][D,A,] [D,A,]>[D,A,] | %3
 [A,,A,]6 z2 | [A,,A,]3 [A,,A,] [A,,A,]2 [A,,A,]2 |[M:9/8] A,,3 [A,,A,] [C,A,]2 [D,A,]3 | %6
[M:4/4] [E,A,E]3 [E,CE] [E,E][E,DE][E,CE][E,B,E] | A,,6 z2 | %8
 [A,CA]3 [A,CA] [A,CA][A,B,E][A,E][A,B,A] | [A,CA]4 [A,A]2 z2 | %10
 [E,B,]3 [G,E][K:treble] [A,EA]>[A,EA][K:bass] [G,E]>[F,CF] | [E,E]6 z2 | %12
 [A,E]3 [A,E] [A,,A,]>[A,,A,] [B,,G,]>[C,A,] | [D,A,]4 [D,A,]2 [D,A,]2 | %14
[M:19/16] z/ z/ z/ z/ z/ z/ z/ z D/-D-<D z/ z/ z/ z |[M:4/4] A,,6 z2 |] %16
V:3
 x8 | x8 | x8 | x8 | x8 |[M:9/8] x9 |[M:4/4] x8 | x8 | x8 | x8 | x8 | x8 | x8 | x8 | %14
[M:19/16] z/ z/ z/ z/ z/ z/ z/ z B/-B-<B z/ z/ z/ z |[M:4/4] x8 |] %16
V:4
 x8 | x8 | x8 | x8 | x8 |[M:9/8] x9 |[M:4/4] x8 | x8 | x8 | x8 | x8 | x8 | x8 | x8 | %14
[M:19/16] z/ z/ z/ z/ z/ z/ z/ z/ z/ z/ z/ z .A3/2 z/ z |[M:4/4] x8 |] %16
V:5
 x8 | x8 | x8 | x8 | x8 |[M:9/8] x9 |[M:4/4] x8 | x8 | x8 | x8 | x4[K:treble] x2[K:bass] x2 | x8 | %12
 x8 | x8 |[M:19/16] z/ z/ z/ z/ z/ z/ z/ z/ z/ z/ z/ z .C3/2 z/ z |[M:4/4] x8 |] %16
V:6
 x8 | x8 | x8 | x8 | x8 |[M:9/8] x9 |[M:4/4] x8 | x8 | x8 | x8 | x4[K:treble] x2[K:bass] x2 | x8 | %12
 x8 | x8 | %14
[M:19/16] [E,A,E]/-[E,A,E]/-[E,A,E]-<[E,A,E][E,CE][E,E]/[E,E]-<[E,E][E,E]/[E,B,E]/-[E,B,E]-<[E,B,E] | %15
[M:4/4] x8 |] %16

